T: Catching The Buzz
M: 6/8
L: 1/8
K: Ador
dcB A2 A-||:-A2 d c2 e-|-edf edc||2 dcB A2 e-||-efg afg|
